svgs/sharp-solid/arrow-down-up-across-line.svg

<svg xmlns="http://www.w3.org/2000/svg" viewBox="0 0 576 512"><!--! Font Awesome Pro 6.6.0 by @fontawesome - https://fontawesome.com License - https://fontawesome.com/license (Commercial License) Copyright 2024 Fonticons, Inc. --><path d="M160 509.3l22.6-22.6 96-96L301.3 368 256 322.7l-22.6 22.6L192 386.7l0-98.7 352 0 32 0 0-64-32 0-96 0 0-98.7 41.4 41.4L512 189.3 557.3 144l-22.6-22.6-96-96L416 2.7 393.4 25.4l-96 96L274.7 144 320 189.3l22.6-22.6L384 125.3l0 98.7-192 0-64 0-96 0L0 224l0 64 32 0 96 0 0 98.7L86.6 345.4 64 322.7 18.7 368l22.6 22.6 96 96L160 509.3zM128 64l0 128 64 0 0-128 0-32-64 0 0 32zM384 320l0 128 0 32 64 0 0-32 0-128-64 0z"/></svg>

<svg xmlns="http://www.w3.org/2000/svg" viewBox="0 0 576 512"><!--! Font Awesome Pro 6.4.2 by @fontawesome - https://fontawesome.com License - https://fontawesome.com/license (Commercial License) Copyright 2023 Fonticons, Inc. --><path d="M160 509.3l22.6-22.6 96-96L301.3 368 256 322.7l-22.6 22.6L192 386.7V288H544h32V224H544 448V125.3l41.4 41.4L512 189.3 557.3 144l-22.6-22.6-96-96L416 2.7 393.4 25.4l-96 96L274.7 144 320 189.3l22.6-22.6L384 125.3V224H192 128 32 0v64H32h96v98.7L86.6 345.4 64 322.7 18.7 368l22.6 22.6 96 96L160 509.3zM128 64V192h64V64 32H128V64zM384 320V448l0 32h64V448 320H384z"/></svg>
